assets/svg/1F513.svg

<svg xmlns="http://www.w3.org/2000/svg" viewBox="0 0 64 64" enable-background="new 0 0 64 64"><g transform="translate(4)"><path d="m44.905 8.824c-8.762-11.185-26.301-11.478-36.488-2.346-1.021.912-1.188 2.483-.279 3.542.566.664 1.128 1.327 1.699 1.99.423.497.917.753 1.421.836.674.182 1.434.065 2.126-.557 17.763-15.985 41.74 12.08 23.18 27.13-1.065.865-1.151 2.524-.279 3.545.571.665 1.138 1.328 1.7 1.989.908 1.062 2.486 1.145 3.547.279 11.317-9.214 12.12-25.25 3.377-36.408" fill="#989897"/><path d="m.809 64c10.871 0 21.747 0 32.623 0 6.914 0 13.829 0 20.744 0 .444 0 .809-.266.809-.573 0-7.823 0-15.646 0-23.476 0-4.471 0-8.951 0-13.427 0-.31-.364-.571-.809-.571-10.871 0-21.743 0-32.618 0-6.919 0-13.833 0-20.749 0-.243 0-.427.059-.553.153 0 0-.009.009-.014.018-.013 0-.018.004-.027.02-.13.084-.215.214-.215.38 0 7.825 0 15.648 0 23.471 0 4.476 0 8.954 0 13.432 0 .307.369.573.809.573" fill="#f79421"/><path d="m54.18 25.954h-11.06c8.816 21.868-12.188 33.953-29.345 37.698-.279.061-.517.228-.773.349h41.17c.444 0 .809-.266.809-.573v-36.904c-.0001-.31-.365-.57-.809-.57" fill="#e18327"/></g></svg>

<?xml version="1.0" encoding="UTF-8" standalone="no"?>
<!-- Generator: Adobe Illustrator 16.0.0, SVG Export Plug-In . SVG Version: 6.00 Build 0)  -->

<svg
   xmlns:dc="http://purl.org/dc/elements/1.1/"
   xmlns:cc="http://creativecommons.org/ns#"
   xmlns:rdf="http://www.w3.org/1999/02/22-rdf-syntax-ns#"
   xmlns:svg="http://www.w3.org/2000/svg"
   xmlns="http://www.w3.org/2000/svg"
   xmlns:sodipodi="http://sodipodi.sourceforge.net/DTD/sodipodi-0.dtd"
   xmlns:inkscape="http://www.inkscape.org/namespaces/inkscape"
   version="1.1"
   id="Layer_1"
   x="0px"
   y="0px"
   width="64px"
   height="64px"
   viewBox="0 0 64 64"
   enable-background="new 0 0 64 64"
   xml:space="preserve"
   inkscape:version="0.48.5 r10040"
   sodipodi:docname="1F513.svg"
   inkscape:export-filename="D:\TESTINGEMOJI\SVGTEST\1F513.png"
   inkscape:export-xdpi="90"
   inkscape:export-ydpi="90"><metadata
   id="metadata4857"><rdf:RDF><cc:Work
       rdf:about=""><dc:format>image/svg+xml</dc:format><dc:type
         rdf:resource="http://purl.org/dc/dcmitype/StillImage" /><dc:title></dc:title></cc:Work></rdf:RDF></metadata><defs
   id="defs4855" /><sodipodi:namedview
   pagecolor="#ffffff"
   bordercolor="#666666"
   borderopacity="1"
   objecttolerance="10"
   gridtolerance="10"
   guidetolerance="10"
   inkscape:pageopacity="0"
   inkscape:pageshadow="2"
   inkscape:window-width="640"
   inkscape:window-height="480"
   id="namedview4853"
   showgrid="false"
   inkscape:zoom="3.6875"
   inkscape:cx="32"
   inkscape:cy="32"
   inkscape:window-x="385"
   inkscape:window-y="277"
   inkscape:window-maximized="0"
   inkscape:current-layer="Layer_1" />
<g
   id="g4845"
   transform="translate(4,0)">
	<path
   d="M 44.905,8.824 C 36.143,-2.361 18.604,-2.654 8.417,6.478 7.396,7.39 7.229,8.961 8.138,10.02 c 0.566,0.664 1.128,1.327 1.699,1.99 0.423,0.497 0.917,0.753 1.421,0.836 0.674,0.182 1.434,0.065 2.126,-0.557 17.763,-15.985 41.74,12.078 23.176,27.13 -1.065,0.865 -1.151,2.524 -0.279,3.545 0.571,0.665 1.138,1.328 1.7,1.989 0.908,1.062 2.486,1.145 3.547,0.279 11.317,-9.214 12.117,-25.247 3.377,-36.408 z"
   id="path4847"
   inkscape:connector-curvature="0"
   style="fill:#989897" />
	<path
   d="m 0.809,64 c 10.871,0 21.747,0 32.623,0 6.914,0 13.829,0 20.744,0 0.444,0 0.809,-0.266 0.809,-0.573 0,-7.823 0,-15.646 0,-23.476 0,-4.471 0,-8.951 0,-13.427 0,-0.31 -0.364,-0.571 -0.809,-0.571 -10.871,0 -21.743,0 -32.618,0 -6.919,0 -13.833,0 -20.749,0 -0.243,0 -0.427,0.059 -0.553,0.153 0,0 -0.009,0.009 -0.014,0.018 -0.013,0 -0.018,0.004 -0.027,0.02 C 0.085,26.228 0,26.358 0,26.524 0,34.349 0,42.172 0,49.995 0,54.471 0,58.949 0,63.427 0,63.734 0.369,64 0.809,64 z"
   id="path4849"
   inkscape:connector-curvature="0"
   style="fill:#f79421" />
	<path
   d="M 54.176,25.954 H 43.12 c 8.816,21.868 -12.188,33.953 -29.345,37.698 -0.279,0.061 -0.517,0.228 -0.773,0.349 h 41.174 c 0.444,0 0.809,-0.266 0.809,-0.573 V 26.524 c -10e-4,-0.31 -0.365,-0.57 -0.809,-0.57 z"
   id="path4851"
   inkscape:connector-curvature="0"
   style="fill:#e18327" />
</g>
</svg>
